icons/dcos-logo.svg

<?xml version="1.0" encoding="UTF-8"?>
<svg width="512px" height="118px" viewBox="0 0 512 118" version="1.1" xmlns="http://www.w3.org/2000/svg" xmlns:xlink="http://www.w3.org/1999/xlink">
    <title>Group</title>
    <defs>
        <linearGradient x1="3.88578059e-14%" y1="0%" x2="100%" y2="100%" id="linearGradient-1">
            <stop stop-color="#7D58FF" offset="0%"></stop>
            <stop stop-color="#FF007D" offset="100%"></stop>
        </linearGradient>
        <linearGradient x1="0%" y1="2.77555756e-14%" x2="100%" y2="100%" id="linearGradient-2">
            <stop stop-color="#7D58FF" offset="0%"></stop>
            <stop stop-color="#FF007D" offset="100%"></stop>
        </linearGradient>
    </defs>
    <g>
        <path d="M512.002249,64.4676543 L512.002249,66.892531 C512.002249,70.1485757 511.338601,73.2571962 510.033846,76.1294293 C508.766654,78.9279503 507.033658,81.4163718 504.892459,83.528607 C502.748753,85.6357586 500.229397,87.3158878 497.402009,88.5207006 C494.552081,89.7382224 491.499304,90.3533378 488.328824,90.3533378 L482.603929,90.3533378 C479.43595,90.3533378 476.380669,89.7382224 473.530743,88.5207006 C470.703356,87.3158878 468.184,85.6357586 466.042798,83.528607 C463.899092,81.4163718 462.166096,78.9254085 460.898906,76.1268875 C459.596655,73.2571962 458.933008,70.1485757 458.933008,66.892531 L458.933008,61.4784984 L473.212693,61.4784984 L473.212693,66.892531 C473.212693,68.1532633 473.465631,69.3351999 473.958982,70.4027556 C474.492406,71.5516488 475.216157,72.575994 476.115212,73.4452894 C477.014266,74.3196682 478.0761,75.0135795 479.268162,75.5117721 C480.440187,76.0048811 481.692351,76.2539775 482.994604,76.2539775 L487.995748,76.2539775 C489.290486,76.2539775 490.530129,76.0074229 491.679616,75.5168558 C492.861659,75.0161213 493.918487,74.3196682 494.817541,73.4452894 C495.7191,72.575994 496.442851,71.5516488 496.976272,70.4027556 C497.469626,69.3351999 497.720058,68.1532633 497.720058,66.892531 L497.720058,64.4676543 C497.720058,62.3528775 497.34441,60.6397046 496.603129,59.368805 C495.786716,57.9631902 494.679804,56.7482101 493.312438,55.7518247 C491.772277,54.6283494 490.001717,53.6650077 488.045835,52.8770498 C485.821992,51.9797946 483.538042,51.087623 481.188983,50.1929099 C478.732235,49.2575276 476.310548,48.2103062 473.984027,47.0792058 C471.439629,45.8413494 469.123124,44.2705174 467.10213,42.4099205 C464.975954,40.452735 463.252977,38.0405675 461.98328,35.236963 C460.696055,32.4028567 460.042426,28.9536353 460.042426,24.9858867 L460.042426,23.4633489 C460.042426,20.2378056 460.655987,17.1571449 461.860569,14.3103298 C463.052629,11.4940162 464.718009,8.98780213 466.811628,6.86539977 C468.902743,4.7429974 471.382029,3.05270091 474.179363,1.84026266 C477.004247,0.620199017 480.044503,5.54223334e-13 483.214983,5.54223334e-13 L488.328824,5.54223334e-13 C491.506817,5.54223334e-13 494.542065,0.620199017 497.34441,1.84280445 C500.119206,3.0552427 502.59098,4.7455392 504.67959,6.86539977 C506.773209,8.98780213 508.438587,11.4940162 509.628143,14.3128716 C510.835231,17.1571449 511.446288,20.2378056 511.446288,23.4633489 L511.446288,27.6852775 L497.164099,27.6852775 L497.164099,23.4633489 C497.164099,22.1619476 496.926185,20.9469676 496.457877,19.8514521 C495.972036,18.7178097 495.305886,17.713799 494.481961,16.877547 C493.655531,16.0412951 492.673835,15.3651765 491.551895,14.8746092 C490.47253,14.396751 489.275461,14.1578218 487.995748,14.1578218 L483.550563,14.1578218 C482.268348,14.1578218 481.073784,14.396751 479.989407,14.8746092 C478.864963,15.37026 477.863233,16.0514623 477.014266,16.9004232 C476.180324,17.7315916 475.511667,18.7254351 475.033339,19.8489103 C474.562526,20.9469676 474.32712,22.1619476 474.32712,23.4633489 L474.32712,24.9858867 C474.32712,26.8896942 474.687742,28.4529009 475.406485,29.6297539 C476.220394,30.9718239 477.327306,32.1410514 478.694669,33.1069353 C480.24485,34.2049926 482.035446,35.1759598 484.026387,35.9944191 C486.257743,36.9120086 488.556718,37.8499327 490.923309,38.8056492 C493.377553,39.7994926 495.801741,40.9077172 498.123257,42.0947374 C500.650123,43.3859714 502.954106,45.0025558 504.972596,46.9012798 C507.09126,48.8940503 508.806724,51.3418031 510.07141,54.1784509 C511.353627,57.0481422 512.002249,60.5075312 512.002249,64.4676543 Z M434.656065,6.86539977 C436.749684,8.98780213 438.41256,11.4940162 439.602116,14.3128716 C440.809202,17.1571449 441.420259,20.2378056 441.420259,23.4633489 L441.420259,66.892531 C441.420259,70.1180741 440.809202,73.1987348 439.602116,76.0430081 C438.41256,78.8618635 436.749684,81.3629941 434.656065,83.4879381 C432.562446,85.6128822 430.093177,87.3006369 427.318381,88.5105335 C424.51854,89.7331388 421.483295,90.3533378 418.302795,90.3533378 L412.635499,90.3533378 C409.46001,90.3533378 406.422259,89.7356806 403.597375,88.5130754 C400.800039,87.3031787 398.323257,85.6128822 396.229638,83.4879381 C394.136019,81.3655359 392.470641,78.8618635 391.281083,76.0404663 C390.073997,73.1987348 389.46294,70.1180741 389.46294,66.892531 L389.46294,23.4633489 C389.46294,20.2378056 390.073997,17.1571449 391.281083,14.3103298 C392.470641,11.4940162 394.136019,8.98780213 396.229638,6.86539977 C398.323257,4.7429974 400.800039,3.05270091 403.597375,1.84026266 C406.422259,0.620199017 409.46001,5.54223334e-13 412.635499,5.54223334e-13 L418.302795,5.54223334e-13 C421.483295,5.54223334e-13 424.516036,0.620199017 427.318381,1.84280445 C430.095681,3.0552427 432.564951,4.7455392 434.656065,6.86539977 Z M427.133091,66.892531 L427.133091,23.4633489 C427.133091,22.1619476 426.892676,20.9469676 426.426871,19.8514521 C425.938526,18.7178097 425.274878,17.713799 424.448451,16.877547 C423.622022,16.0412951 422.640326,15.3651765 421.523394,14.8746092 C420.441524,14.396751 419.241949,14.1578218 417.964743,14.1578218 L412.963596,14.1578218 C411.681379,14.1578218 410.48431,14.396751 409.40244,14.8746092 C408.272988,15.37026 407.271256,16.0514623 406.424792,16.9004232 C405.59085,17.7315916 404.924701,18.7254351 404.443868,19.8489103 C403.975559,20.9469676 403.737649,22.1619476 403.737649,23.4633489 L403.737649,66.892531 C403.737649,68.1888485 403.975559,69.4063704 404.443868,70.5018858 C404.929709,71.6380702 405.603374,72.6471642 406.444829,73.5037508 C407.288788,74.3603371 408.283005,75.0440811 409.40244,75.5346482 C410.48431,76.0125065 411.681379,76.2539775 412.963596,76.2539775 L417.964743,76.2539775 C419.241949,76.2539775 420.441524,76.0125065 421.52089,75.5371901 C422.627802,75.0491645 423.609501,74.373046 424.430919,73.5240851 C425.267366,72.6598733 425.936022,71.6431535 426.424367,70.5044276 C426.892676,69.4063704 427.133091,68.1888485 427.133091,66.892531 Z M315.389858,14.3128716 C316.599448,17.1571449 317.210505,20.2378056 317.210505,23.4633489 L317.210505,27.6852775 L302.928315,27.6852775 L302.928315,23.4633489 C302.928315,22.1619476 302.690405,20.9469676 302.219592,19.8514521 C301.733751,18.7178097 301.070103,17.713799 300.24618,16.877547 C299.419751,16.0412951 298.43555,15.3651765 297.316115,14.8746092 C296.236749,14.396751 295.039678,14.1578218 293.757463,14.1578218 L288.756317,14.1578218 C287.476604,14.1578218 286.279535,14.396751 285.200169,14.8746092 C284.070717,15.37026 283.068985,16.0514623 282.220017,16.9004232 C281.388582,17.7315916 280.719925,18.7254351 280.241597,19.8489103 C279.773288,20.9469676 279.532873,22.1619476 279.532873,23.4633489 L279.532873,66.892531 C279.532873,68.1888485 279.773288,69.4063704 280.239093,70.5018858 C280.724934,71.6380702 281.398598,72.6471642 282.242558,73.5037508 C283.086517,74.3603371 284.080734,75.0440811 285.200169,75.5346482 C286.279535,76.0125065 287.476604,76.2539775 288.756317,76.2539775 L293.757463,76.2539775 C295.039678,76.2539775 296.236749,76.0125065 297.313611,75.5371901 C298.425531,75.0491645 299.402221,74.373046 300.226144,73.5240851 C301.06259,72.6598733 301.733751,71.6431535 302.217087,70.5044276 C302.690405,69.4063704 302.928315,68.1888485 302.928315,66.892531 L302.928315,61.4784984 L317.210505,61.4784984 L317.210505,66.892531 C317.210505,70.1180741 316.599448,73.1987348 315.389858,76.0430081 C314.202806,78.8618635 312.537428,81.3629941 310.443807,83.4879381 C308.350188,85.6128822 305.880921,87.3006369 303.108627,88.5105335 C300.306284,89.7331388 297.271036,90.3533378 294.090539,90.3533378 L288.425745,90.3533378 C285.250256,90.3533378 282.212504,89.7356806 279.390125,88.5130754 C276.590287,87.3031787 274.111001,85.6128822 272.017382,83.4879381 C269.92376,81.3629941 268.260887,78.8618635 267.068827,76.0404663 C265.864245,73.1987348 265.253188,70.1180741 265.253188,66.892531 L265.253188,23.4633489 C265.253188,20.2378056 265.864245,17.1571449 267.068827,14.3103298 C268.260887,11.4940162 269.92376,8.98780213 272.017382,6.86539977 C274.111001,4.7429974 276.590287,3.05270091 279.387621,1.84026266 C282.212504,0.620199017 285.250256,5.54223334e-13 288.425745,5.54223334e-13 L294.090539,5.54223334e-13 C297.271036,5.54223334e-13 300.30378,0.620199017 303.108627,1.84280445 C305.883425,3.0552427 308.352692,4.7455392 310.443807,6.86539977 C312.537428,8.98780213 314.202806,11.4940162 315.389858,14.3128716 Z M240.956186,7.99650044 C243.047301,10.1189028 244.715184,12.6352841 245.907245,15.4744738 C247.114331,18.3416234 247.722883,21.4273677 247.722883,24.6478273 L247.722883,65.7614303 C247.722883,68.9895153 247.111826,72.0701759 245.902236,74.9169911 C244.715184,77.7307628 243.047301,80.2344352 240.956186,82.3593793 C238.865071,84.4817815 236.383281,86.1746198 233.585945,87.3845165 C230.761062,88.6096636 227.72331,89.2273207 224.550325,89.2273207 L195.765566,89.2273207 L195.765566,1.12855887 L224.550325,1.12855887 C227.72331,1.12855887 230.761062,1.74875788 233.583441,2.96882152 C236.383281,4.18125976 238.865071,5.87409806 240.956186,7.99650044 Z M233.440694,65.7614303 L233.440694,24.6478273 C233.440694,23.3489679 233.202783,22.1339879 232.731969,21.0359306 C232.248633,19.8997463 231.572464,18.890652 230.73101,18.0340657 C229.887051,17.1774793 228.890328,16.4937353 227.773397,16.0006263 C226.691527,15.5253098 225.496962,15.2838389 224.214745,15.2838389 L210.045251,15.2838389 L210.045251,75.0669572 L224.214745,75.0669572 C225.496962,75.0669572 226.691527,74.8280281 227.773397,74.3527116 C228.897841,73.8570609 229.899572,73.1733168 230.751044,72.3268976 C231.58749,71.4931874 232.251137,70.499344 232.729464,69.3758688 C233.202783,68.2778115 233.440694,67.0628314 233.440694,65.7614303 Z" fill="#251C4B"></path>
        <polygon fill="url(#linearGradient-1)" points="364.541071 0 326.275941 90.3533378 338.217098 90.3533378 376.47224 0"></polygon>
        <path d="M23.7369964,10.0124126 L81.0516214,43.2054392 L129.35743,10.0124126 L23.7369964,10.0124126 Z M90.6855601,48.7828236 L106.326216,57.8445174 L128.258425,22.966578 L90.6855601,48.7828236 Z M20.1954779,19.5693761 L48.9334513,65.2735632 L71.8865244,49.5045735 L20.1954779,19.5693761 Z M115.075406,62.9092103 L140.448306,77.6030417 L140.448306,22.5609048 L115.075406,62.9092103 Z M10.14059,22.5609048 L10.14059,91.9285318 L40.5976493,71.000275 L10.14059,22.5609048 Z M54.2898406,73.7927002 L75.2944483,107.192297 L100.977389,66.3512105 L81.5179424,55.0819576 L54.2898406,73.7927002 Z M75.2919276,117.961302 C72.0100363,117.961302 68.9877726,116.146972 66.9964561,112.981228 L66.9964561,112.978739 L45.9540385,79.519412 L14.173636,101.358567 C10.9471993,103.576081 7.43340792,103.994198 4.54725937,102.503411 C1.65606952,101.012625 0,97.9314994 0,94.0464943 L0,12.4713397 C0,7.6231717 2.81557023,3.41213465 6.91919455,1.35141437 C8.17195948,0.564955918 9.98935082,0.00248879258 12.6209133,5.54223334e-13 L12.623434,5.54223334e-13 L12.6335166,5.54223334e-13 L137.95538,5.54223334e-13 L137.965463,5.54223334e-13 L137.967983,5.54223334e-13 C140.420579,0.00248879258 142.172434,0.510202479 143.425198,1.22946354 C147.659897,3.24538553 150.588896,7.52610879 150.588896,12.4713397 L150.588896,78.8773034 C150.588896,82.6776897 148.963075,85.7787252 146.124819,87.3864852 C143.284042,88.9892677 139.747565,88.8075859 136.430384,86.8862381 L109.724058,71.418392 L83.5899199,112.978739 C81.5986033,116.146972 78.5763394,117.961302 75.2919276,117.961302 Z" fill="url(#linearGradient-2)"></path>
    </g>
</svg>

<svg xmlns="http://www.w3.org/2000/svg" viewBox="0 0 512.002 117.961">
  <defs>
    <linearGradient id="a" x1="437.745" x2="505.091" y1="0" y2="67.345" gradientTransform="scale(.74536 1.34164)" gradientUnits="userSpaceOnUse">
      <stop offset="0%" stop-color="#7D58FF"/>
      <stop offset="100%" stop-color="#FF007D"/>
    </linearGradient>
    <linearGradient id="b" x1="0" x2="133.281" y1="0" y2="133.281" gradientTransform="scale(1.12987 .88506)" gradientUnits="userSpaceOnUse">
      <stop offset="0%" stop-color="#7D58FF"/>
      <stop offset="100%" stop-color="#FF007D"/>
    </linearGradient>
  </defs>
  <path fill="#251c4b" d="M512.002 64.468v2.425c0 3.256-.663 6.364-1.968 9.236a24.6 24.6 0 0 1-5.142 7.4 24.113 24.113 0 0 1-7.49 4.992c-2.85 1.217-5.903 1.832-9.073 1.832h-5.725c-3.168 0-6.223-.615-9.073-1.832a24.072 24.072 0 0 1-7.488-4.992 24.574 24.574 0 0 1-5.144-7.402c-1.302-2.87-1.966-5.978-1.966-9.234v-5.415h14.28v5.415c0 1.26.253 2.442.746 3.51a10.164 10.164 0 0 0 2.156 3.042c.9.875 1.961 1.569 3.153 2.067a9.549 9.549 0 0 0 3.727.742h5a9.328 9.328 0 0 0 3.685-.737 10.163 10.163 0 0 0 5.296-5.114c.494-1.068.744-2.25.744-3.51v-2.425c0-2.115-.376-3.828-1.117-5.1a11.798 11.798 0 0 0-3.29-3.616c-1.54-1.124-3.311-2.087-5.267-2.875a376.395 376.395 0 0 0-6.857-2.684 88.817 88.817 0 0 1-7.205-3.114 28.64 28.64 0 0 1-6.882-4.67c-2.126-1.956-3.849-4.368-5.119-7.172-1.287-2.834-1.94-6.283-1.94-10.251v-1.523c0-3.225.613-6.306 1.818-9.153 1.192-2.816 2.857-5.322 4.95-7.445a23.275 23.275 0 0 1 7.368-5.025C477.004.62 480.045 0 483.215 0h5.114c3.178 0 6.213.62 9.015 1.843a23.394 23.394 0 0 1 7.336 5.022 23.623 23.623 0 0 1 4.948 7.448c1.207 2.844 1.818 5.925 1.818 9.15v4.222h-14.282v-4.222c0-1.301-.238-2.516-.706-3.612a9.606 9.606 0 0 0-1.976-2.973 9.37 9.37 0 0 0-2.93-2.003c-1.08-.478-2.277-.717-3.556-.717h-4.445c-1.283 0-2.477.239-3.562.717a9.743 9.743 0 0 0-2.975 2.025 9.264 9.264 0 0 0-1.98 2.949c-.471 1.098-.707 2.313-.707 3.614v1.523c0 1.904.36 3.467 1.08 4.644.813 1.342 1.92 2.511 3.288 3.477 1.55 1.098 3.34 2.069 5.331 2.887a1174.4 1174.4 0 0 0 6.897 2.812 90.512 90.512 0 0 1 7.2 3.289 29.716 29.716 0 0 1 6.85 4.806c2.118 1.993 3.834 4.44 5.098 7.277 1.283 2.87 1.931 6.33 1.931 10.29zM434.656 6.865c2.094 2.123 3.757 4.629 4.946 7.448 1.207 2.844 1.818 5.925 1.818 9.15v43.43c0 3.225-.61 6.306-1.818 9.15a23.633 23.633 0 0 1-4.946 7.445 23.336 23.336 0 0 1-7.338 5.023c-2.8 1.222-5.835 1.842-9.015 1.842h-5.667c-3.176 0-6.214-.617-9.039-1.84a23.22 23.22 0 0 1-7.367-5.025 23.594 23.594 0 0 1-4.949-7.448c-1.207-2.841-1.818-5.922-1.818-9.147v-43.43c0-3.225.611-6.306 1.818-9.153a23.64 23.64 0 0 1 4.949-7.445 23.303 23.303 0 0 1 7.367-5.025C406.422.62 409.46 0 412.635 0h5.668c3.18 0 6.213.62 9.015 1.843a23.405 23.405 0 0 1 7.338 5.022zm-7.523 60.028v-43.43c0-1.301-.24-2.516-.706-3.612a9.613 9.613 0 0 0-1.979-2.973 9.406 9.406 0 0 0-2.925-2.003c-1.081-.478-2.281-.717-3.558-.717h-5.001c-1.283 0-2.48.239-3.562.717a9.664 9.664 0 0 0-2.977 2.025 9.306 9.306 0 0 0-1.981 2.949c-.468 1.098-.706 2.313-.706 3.614v43.43c0 1.296.238 2.513.706 3.609a9.704 9.704 0 0 0 2 3.002 9.46 9.46 0 0 0 2.958 2.03c1.082.479 2.28.72 3.562.72h5c1.278 0 2.478-.241 3.557-.717a9.174 9.174 0 0 0 2.91-2.013 9.961 9.961 0 0 0 1.993-3.02c.469-1.098.71-2.315.71-3.611zM315.39 14.313c1.21 2.844 1.82 5.925 1.82 9.15v4.222h-14.282v-4.222c0-1.301-.238-2.516-.708-3.612a9.6 9.6 0 0 0-1.974-2.973 9.4 9.4 0 0 0-2.93-2.003c-1.08-.478-2.276-.717-3.559-.717h-5c-1.28 0-2.477.239-3.557.717a9.705 9.705 0 0 0-2.98 2.025 9.299 9.299 0 0 0-1.978 2.949c-.469 1.098-.71 2.313-.71 3.614v43.43c0 1.296.241 2.513.707 3.609a9.667 9.667 0 0 0 2.004 3.002 9.46 9.46 0 0 0 2.957 2.03c1.08.479 2.277.72 3.556.72h5.001c1.283 0 2.48-.241 3.557-.717a9.156 9.156 0 0 0 2.912-2.013 9.863 9.863 0 0 0 1.991-3.02c.473-1.098.711-2.315.711-3.611v-5.415h14.282v5.415c0 3.225-.61 6.306-1.82 9.15a23.59 23.59 0 0 1-4.946 7.445 23.353 23.353 0 0 1-7.335 5.023c-2.803 1.222-5.838 1.842-9.018 1.842h-5.665c-3.176 0-6.214-.617-9.036-1.84-2.8-1.21-5.279-2.9-7.373-5.025a23.665 23.665 0 0 1-4.948-7.448c-1.205-2.841-1.816-5.922-1.816-9.147v-43.43c0-3.225.611-6.306 1.816-9.153 1.192-2.816 2.855-5.322 4.948-7.445a23.314 23.314 0 0 1 7.37-5.025C282.213.62 285.25 0 288.427 0h5.665c3.18 0 6.213.62 9.018 1.843a23.423 23.423 0 0 1 7.335 5.022 23.573 23.573 0 0 1 4.946 7.448zm-74.434-6.316c2.091 2.122 3.76 4.638 4.951 7.477 1.207 2.868 1.816 5.953 1.816 9.174V65.76c0 3.229-.611 6.31-1.82 9.156a23.68 23.68 0 0 1-4.947 7.442 23.244 23.244 0 0 1-7.37 5.026c-2.825 1.225-5.863 1.842-9.036 1.842h-28.784V1.13h28.784c3.173 0 6.211.62 9.033 1.84a23.276 23.276 0 0 1 7.373 5.028zm-7.515 57.764V24.648c0-1.299-.238-2.514-.709-3.612a9.66 9.66 0 0 0-2.001-3.002 9.54 9.54 0 0 0-2.958-2.033c-1.081-.476-2.276-.717-3.558-.717h-14.17v59.783h14.17c1.282 0 2.477-.239 3.558-.714a9.83 9.83 0 0 0 2.978-2.026 9.256 9.256 0 0 0 1.978-2.951c.474-1.098.712-2.313.712-3.615z"/>
  <path fill="url(#a)" d="M338.217 90.353 376.472 0h-11.93l-38.266 90.353z" style="fill:url(#a)"/>
  <path fill="url(#b)" d="m23.737 10.012 57.315 33.193 48.305-33.193zm66.949 38.77 15.64 9.063 21.932-34.878zM20.196 19.57l28.737 45.705 22.954-15.77zm94.88 43.34 25.372 14.694V22.561zM10.14 22.561v69.368L40.598 71zM54.29 73.793l21.004 33.4 25.683-40.842-19.46-11.269zm21.002 44.168c-3.282 0-6.304-1.814-8.296-4.98v-.002L45.954 79.52l-31.78 21.84c-3.227 2.217-6.74 2.635-9.627 1.144C1.657 101.013 0 97.931 0 94.046V12.471c0-4.848 2.816-9.059 6.92-11.12C8.171.565 9.99.002 12.62 0H137.969c2.453.002 4.205.51 5.458 1.23 4.234 2.015 7.163 6.296 7.163 11.241v66.406c0 3.8-1.625 6.902-4.464 8.51-2.84 1.602-6.377 1.42-9.694-.5l-26.707-15.469-26.134 41.56c-1.991 3.169-5.014 4.983-8.298 4.983z" style="fill:url(#b)"/>
</svg>
